X:1
T:Title
%%score { 1 | 2 }
L:1/8
M:6/8
K:G
V:1 treble nm="Grand Piano"
V:2 bass 
V:1
 z3 z2[Q:1/4=87] D | [B,G][CF][DG] ADD | AGA B2 [GB] | [Gc][Gd][Ge] dBd | dcB A2 D | %5
 [B,G][CF][DG] ADD |[M:5/8] AGA B2 |[M:1/8] [GB] |[M:3/4] [Gc][Gd] [Ge][Gd] [GB]G | %9
[M:5/8] [FA]3 G2 |[M:1/8] B/c/ |[M:3/4] dd ed BB | [Fd][FA] [FA] [FA]2 [FB]/[FA]/ | GG GG FG | %14
 [^DB][DF] [DF] [DF]2 [DF] | EE E[^DF] [DF][DF] | GG G A2 A | BA B[Ec] [DEB][CEA] | GA F [B,G]3 |] %19
V:2
 z3 z2 D, | [G,,D,][A,,D,][B,,G,] [D,F,D][D,F,][D,F,] | [D,F,D][D,E,D][D,F,D] [G,D]2 [=F,D] | %3
 [E,C][D,B,][C,C][K:treble] [G,B,G][G,DG][G,B,G] | [F,A,D][F,A,D][G,D] [D,F,D]2 D, | %5
 [G,,D,][A,,D,][B,,G,] [D,F,D][D,F,][D,F,] |[M:5/8] [D,F,D][D,E,D][D,F,D] [G,D]2 |[M:1/8] [=F,D] | %8
[M:3/4] [E,C][D,B,] [C,C][D,B,] [D,D][D,B,] |[M:5/8] [D,C]3 [G,B,]2 | %10
[M:1/8][K:treble] [G,DG]/[G,A,G]/ |[M:3/4] [G,B,G][G,B,G] [G,CG][G,B,G] [G,DG][G,DG] | %12
 [D,D][D,D] [D,D] [D,D]2 [D,B,]/[D,B,]/ | [E,B,E][E,B,E] [E,B,E][E,B,E] [E,A,^D][E,G,E] | %14
 [B,,F,][B,,B,] [B,,B,] [B,,B,]2 [B,,A,] | [C,G,C][C,G,C] [C,G,C][B,,B,] [B,,B,][B,,B,] | %16
 [E,B,E][E,B,E] [E,B,E] [D,F,D]2 [D,F,D] | [G,D][G,F] [G,=F][K:bass][C,G,] C,C, | %18
 [D,B,D][D,F,C] [D,A,C] [G,,G,]3 |] %19

